src/Resource_Files/fluent/format-text-strikethrough.svg

<svg clip-rule="evenodd" fill-rule="evenodd" stroke-linejoin="round" stroke-miterlimit="2" viewBox="0 0 16 16" xmlns="http://www.w3.org/2000/svg"><path d="m16.5 10c.276 0 .5.224.5.5s-.224.5-.5.5h-2.73c.732.57 1.23 1.363 1.23 2.5 0 1.228-.721 2.12-1.677 2.681-.945.556-2.163.819-3.323.819-1.126 0-2.078-.128-2.893-.478-.827-.356-1.477-.925-2.023-1.745-.153-.229-.091-.54.139-.693.229-.153.54-.091.693.139.454.68.96 1.111 1.586 1.38.639.275 1.437.397 2.498.397 1.028 0 2.06-.237 2.817-.681.748-.439 1.183-1.047 1.183-1.819 0-.909-.432-1.484-1.167-1.933-.361-.221-.784-.403-1.248-.567h-8.085c-.276 0-.5-.224-.5-.5s.224-.5.5-.5zm-6.5-7c2.688 0 4.326 1.434 4.9 2.2.166.221.121.534-.1.7s-.534.121-.7-.1c-.426-.568-1.788-1.8-4.1-1.8-1.153 0-2.178.347-2.903.849-.738.51-1.097 1.127-1.097 1.651 0 .909.432 1.484 1.167 1.933.362.221.784.403 1.249.567h-2.186c-.732-.57-1.23-1.363-1.23-2.5 0-.976.641-1.859 1.528-2.474.9-.623 2.126-1.026 3.472-1.026z" fill="#1abc9c" fill-rule="nonzero" transform="translate(-2 -2)"/></svg>

<?xml version="1.0" encoding="UTF-8" standalone="no"?>
<!DOCTYPE svg PUBLIC "-//W3C//DTD SVG 1.1//EN" "http://www.w3.org/Graphics/SVG/1.1/DTD/svg11.dtd">
<svg width="100%" height="100%" viewBox="0 0 16 16" version="1.1" xmlns="http://www.w3.org/2000/svg" xmlns:xlink="http://www.w3.org/1999/xlink" xml:space="preserve" xmlns:serif="http://www.serif.com/" style="fill-rule:evenodd;clip-rule:evenodd;stroke-linejoin:round;stroke-miterlimit:2;">
    <g transform="matrix(1,0,0,1,-2,-2)">
        <path d="M16.5,10C16.776,10 17,10.224 17,10.5C17,10.776 16.776,11 16.5,11L13.77,11C14.502,11.57 15,12.363 15,13.5C15,14.728 14.279,15.62 13.323,16.181C12.378,16.737 11.16,17 10,17C8.874,17 7.922,16.872 7.107,16.522C6.28,16.166 5.63,15.597 5.084,14.777C4.931,14.548 4.993,14.237 5.223,14.084C5.452,13.931 5.763,13.993 5.916,14.223C6.37,14.903 6.876,15.334 7.502,15.603C8.141,15.878 8.939,16 10,16C11.028,16 12.06,15.763 12.817,15.319C13.565,14.88 14,14.272 14,13.5C14,12.591 13.568,12.016 12.833,11.567C12.472,11.346 12.049,11.164 11.585,11L3.5,11C3.224,11 3,10.776 3,10.5C3,10.224 3.224,10 3.5,10L16.5,10ZM10,3C12.688,3 14.326,4.434 14.9,5.2C15.066,5.421 15.021,5.734 14.8,5.9C14.579,6.066 14.266,6.021 14.1,5.8C13.674,5.232 12.312,4 10,4C8.847,4 7.822,4.347 7.097,4.849C6.359,5.359 6,5.976 6,6.5C6,7.409 6.432,7.984 7.167,8.433C7.529,8.654 7.951,8.836 8.416,9L6.23,9C5.498,8.43 5,7.637 5,6.5C5,5.524 5.641,4.641 6.528,4.026C7.428,3.403 8.654,3 10,3Z" style="fill:rgb(26,188,156);fill-rule:nonzero;"/>
    </g>
</svg>
